2 Export/Icons/Rounded/Account Balance.svg

<svg xmlns="http://www.w3.org/2000/svg" xmlns:xlink="http://www.w3.org/1999/xlink" width="24" height="24" viewBox="0 0 24 24">
  <defs>
    <path id="account-balance-a" d="M10,16 L10,8 C10,6.9 10.89,6 12,6 L21,6 L21,5 C21,3.9 20.1,3 19,3 L5,3 C3.89,3 3,3.9 3,5 L3,19 C3,20.1 3.89,21 5,21 L19,21 C20.1,21 21,20.1 21,19 L21,18 L12,18 C10.89,18 10,17.1 10,16 Z M13,8 C12.45,8 12,8.45 12,9 L12,15 C12,15.55 12.45,16 13,16 L22,16 L22,8 L13,8 Z M16,13.5 C15.17,13.5 14.5,12.83 14.5,12 C14.5,11.17 15.17,10.5 16,10.5 C16.83,10.5 17.5,11.17 17.5,12 C17.5,12.83 16.83,13.5 16,13.5 Z"/>
  </defs>
  <g fill="none" fill-rule="evenodd">
    <polygon points="0 0 24 0 24 24 0 24"/>
    <mask id="account-balance-b" fill="#fff">
      <use xlink:href="#account-balance-a"/>
    </mask>
    <use fill="#000" xlink:href="#account-balance-a"/>
    <g fill="#000" mask="url(#account-balance-b)">
      <rect width="24" height="24"/>
    </g>
  </g>
</svg>

<svg xmlns="http://www.w3.org/2000/svg" xmlns:xlink="http://www.w3.org/1999/xlink" width="24" height="24" viewBox="0 0 24 24">
  <defs>
    <path id="account-balance-a" d="M10 16V8a2 2 0 0 1 2-2h9V5c0-1.1-.9-2-2-2H5a2 2 0 0 0-2 2v14a2 2 0 0 0 2 2h14c1.1 0 2-.9 2-2v-1h-9a2 2 0 0 1-2-2zm3-8c-.55 0-1 .45-1 1v6c0 .55.45 1 1 1h9V8h-9zm3 5.5c-.83 0-1.5-.67-1.5-1.5s.67-1.5 1.5-1.5 1.5.67 1.5 1.5-.67 1.5-1.5 1.5z"/>
  </defs>
  <g fill="none" fill-rule="evenodd">
    <polygon points="0 0 24 0 24 24 0 24"/>
    <mask id="account-balance-b" fill="#fff">
      <use xlink:href="#account-balance-a"/>
    </mask>
    <use fill="#000" xlink:href="#account-balance-a"/>
    <g fill="#000" mask="url(#account-balance-b)">
      <rect width="24" height="24"/>
    </g>
  </g>
</svg>
